build/assets/img/svg/icon-vk.svg

<svg width="60" height="60" viewBox="0 0 60 60" fill="none" xmlns="http://www.w3.org/2000/svg">
<rect width="60" height="60" rx="10" fill="#A62E41"/>
<path fill-rule="evenodd" clip-rule="evenodd" d="M29.5919 40.5876H31.8633C31.8633 40.5876 32.5494 40.5123 32.8997 40.1347C33.2221 39.788 33.2118 39.137 33.2118 39.137C33.2118 39.137 33.1674 36.0892 34.582 35.6404C35.9764 35.1983 37.767 38.586 39.6649 39.8886C41.1001 40.8745 42.1906 40.6583 42.1906 40.6583L47.2653 40.5876C47.2653 40.5876 49.92 40.4241 48.6613 38.3369C48.5581 38.1661 47.9282 36.7929 44.8882 33.971C41.7062 31.0176 42.1323 31.4953 45.9653 26.3866C48.2996 23.2753 49.2329 21.3759 48.9414 20.5624C48.6633 19.7875 46.9465 19.9923 46.9465 19.9923L41.2327 20.0279C41.2327 20.0279 40.8091 19.9701 40.495 20.1579C40.188 20.3421 39.9904 20.7713 39.9904 20.7713C39.9904 20.7713 39.0861 23.1789 37.88 25.2264C35.3357 29.5469 34.3184 29.7749 33.9026 29.5066C32.9353 28.8814 33.1767 26.9948 33.1767 25.6546C33.1767 21.4677 33.8118 19.722 31.9402 19.2701C31.3191 19.12 30.862 19.0209 29.2736 19.0049C27.2349 18.9838 25.5093 19.0111 24.5322 19.4899C23.8822 19.8081 23.3808 20.5175 23.6862 20.5582C24.0638 20.6088 24.9191 20.7888 25.3726 21.4063C25.9581 22.2028 25.9374 23.9919 25.9374 23.9919C25.9374 23.9919 26.2738 28.9206 25.1518 29.5329C24.3816 29.9529 23.325 29.0955 21.0567 25.1758C19.8945 23.168 19.017 20.9487 19.017 20.9487C19.017 20.9487 18.8478 20.534 18.546 20.3122C18.1797 20.0434 17.6679 19.9578 17.6679 19.9578L12.2383 19.9933C12.2383 19.9933 11.4233 20.016 11.1241 20.3705C10.8579 20.6857 11.1029 21.3377 11.1029 21.3377C11.1029 21.3377 15.3537 31.2828 20.1668 36.2945C24.5802 40.8894 29.5919 40.5876 29.5919 40.5876Z" fill="white"/>
</svg>

<svg width="60" height="60" fill="none" xmlns="http://www.w3.org/2000/svg"><rect width="60" height="60" rx="10" fill="#A62E41"/><path fill-rule="evenodd" clip-rule="evenodd" d="M29.592 40.588h2.271s.686-.076 1.037-.453c.322-.347.312-.998.312-.998s-.045-3.048 1.37-3.497c1.394-.442 3.185 2.946 5.083 4.249 1.435.985 2.526.77 2.526.77l5.074-.071s2.655-.164 1.396-2.251c-.103-.17-.733-1.544-3.773-4.366-3.182-2.953-2.756-2.476 1.077-7.584 2.335-3.112 3.268-5.011 2.976-5.825-.278-.774-1.995-.57-1.995-.57l-5.713.036s-.424-.058-.738.13c-.307.184-.505.613-.505.613s-.904 2.408-2.11 4.455c-2.544 4.32-3.562 4.549-3.977 4.28-.968-.625-.726-2.511-.726-3.851 0-4.187.635-5.933-1.237-6.385-.62-.15-1.078-.25-2.666-.265-2.04-.021-3.765.006-4.742.485-.65.318-1.151 1.027-.846 1.068.378.05 1.233.23 1.687.848.585.797.564 2.586.564 2.586s.337 4.929-.785 5.54c-.77.42-1.827-.436-4.095-4.356-1.162-2.008-2.04-4.227-2.04-4.227s-.17-.415-.471-.637c-.366-.269-.878-.354-.878-.354l-5.43.035s-.815.023-1.114.378c-.266.315-.021.967-.021.967s4.25 9.945 9.064 14.956c4.413 4.595 9.425 4.294 9.425 4.294z" fill="#fff"/></svg>
